Speka/assets/images/AirplaneTakeoff.svg

<svg width="80" height="80" viewBox="0 0 80 80" fill="none" xmlns="http://www.w3.org/2000/svg">
<path d="M7.5 67.5H52.5" stroke="#F58220" stroke-width="2" stroke-linecap="round" stroke-linejoin="round"/>
<path d="M5.28966 43.8654L17.0695 54.909C18.639 56.3804 20.6411 57.3064 22.7787 57.5495C24.9162 57.7927 27.0752 57.34 28.9351 56.2587L76.2499 28.75L70.4251 21.6309C68.914 19.784 66.7923 18.5383 64.4431 18.1189C62.0939 17.6995 59.6722 18.134 57.6154 19.3439L43.7499 27.5L24.9999 21.25L19.844 23.4597C19.4583 23.6251 19.1203 23.8848 18.8614 24.2151C18.6025 24.5453 18.4308 24.9355 18.3623 25.3495C18.2938 25.7636 18.3306 26.1882 18.4694 26.5843C18.6082 26.9803 18.8444 27.3351 19.1564 27.6158L28.7499 36.25L19.9999 41.25L11.2499 37.5L6.01471 39.7437C5.63293 39.9073 5.29793 40.1635 5.03998 40.4891C4.78204 40.8146 4.60928 41.1994 4.53732 41.6084C4.46535 42.0175 4.49646 42.4381 4.62781 42.8322C4.75916 43.2262 4.98663 43.5813 5.28966 43.8654V43.8654Z" stroke="#F58220" stroke-width="2" stroke-linecap="round" stroke-linejoin="round"/>
</svg>

<svg width="80" height="80" fill="none" xmlns="http://www.w3.org/2000/svg"><path d="M7.5 67.5h45M5.29 43.865L17.07 54.91a10 10 0 0011.865 1.35L76.25 28.75l-5.825-7.12a10 10 0 00-12.81-2.286L43.75 27.5 25 21.25l-5.156 2.21a2.5 2.5 0 00-.688 4.156l9.594 8.634-8.75 5-8.75-3.75-5.235 2.244a2.5 2.5 0 00-.725 4.121v0z" stroke="#F58220" stroke-width="2" stroke-linecap="round" stroke-linejoin="round"/></svg>
